X:1
T:Title
%%score { ( 1 2 ) | ( 3 4 ) }
L:1/8
M:4/4
K:F
V:1 treble nm="Grand Piano"
V:2 treble 
V:3 bass 
V:4 bass 
V:1
 z4 z2[Q:1/4=100] z G | A2 A2 AGFA | c2 d2 c2 A2 | [CEG]3 [B,EG] [A,F]2 [CEG]2 | [CFA]6 F-[FG] | %5
 A2 A2 AGFG | A2 c2 c2 [Fd]2 | [Fc]3 [FA] [DG]2 [EG]2 | F6 z2 | c4 A2 d2 | c4 A2 A2 | %11
 [FA]4 [EG]2 [Ed]2 | d4 c4 | c4 A2 d2 | c4 A2 (3FF[FG] | [FA]2 [FA]2 [B,EG][A,F] [B,EG]<[CEA] | %16
[M:3/4] [A,CF]6 |] %17
V:2
 z4 z2 F2 | x8 | x8 | x8 | z4 z2 .A,2 | x8 | x8 | x8 | x8 | x8 | x8 | x8 | x8 | x8 | x8 | x8 | %16
[M:3/4] x6 |] %17
V:3
 z4 z2 A,B, | [F,CF]2 [F,CF]2 [F,CF][F,B,C][F,A,C][F,CF] | [F,A,F]2 [F,B,F]2 [F,A,F]2 [F,CF]2 | %3
 C,3 C, D,2 C,2 | F,6 z B, | [F,CF]2 [F,CF]2 [F,CF][F,B,C][F,A,C][F,B,C] | %6
 [F,CF]2 [F,A,F]2 [F,A,F]2 [B,,B,]2 | [C,A,]3 [C,C] [C,B,]2 [C,B,]2 | [F,A,]6 z2 | %9
 [F,A,F]4 [F,CF]2 [F,B,F]2 | [F,A,F]4 [F,CF]2 [F,CF]2 | [C,C]4 [C,C]2 [C,B,]2 | [F,B,F]4 [F,A,F]4 | %13
 [F,A,F]4 [F,CF]2 [F,B,F]2 | [F,A,F]4 [F,CF]2 (3[D,=B,][D,B,][D,B,] | [C,C]2 [C,C]2 C,C, C,<C, | %16
[M:3/4] F,,6 |] %17
V:4
 z4 z2 F,2 | x8 | x8 | x8 | z4 z2 F,2 | x8 | x8 | x8 | x8 | x8 | x8 | x8 | x8 | x8 | x8 | x8 | %16
[M:3/4] x6 |] %17

